X: 11
T:Muiñeira nº2
M:6/8
L:1/8
Q:200
C:E. Otero
R:Muiñeira
B:Leccións de Gaita. OTERO COVELO
K:C
GAG |: FED EFG | E2C DEF |
EDC DEF | G3 GAG | FED EFG | E2C DEF | EDC DED |1
C3 GAG :|2 C3- C>EF |:  G2E F2D | E3- E>FG | A2G A2B |
G3- G>EF | G2E F2D | E3- E>FE | D2E F2D |1 C3- C>EF :|2 C3 ||

